app/style/icons/menu-rescan-hover.svg

<svg viewBox="11732 1653 16 16" xmlns="http://www.w3.org/2000/svg"><path d="m56.222 229.668a4.639 4.639 0 0 1 -3.3-1.369l1.746-1.746h-4.668v4.668l1.824-1.824a6.22 6.22 0 0 0 10.62-4.4h-1.557a4.664 4.664 0 0 1 -4.665 4.671z" fill="#152337" transform="translate(11683.778 1436)"/><path d="m56.222 50a6.222 6.222 0 0 0 -6.222 6.222h1.557a4.666 4.666 0 0 1 7.968-3.3l-1.745 1.746h4.665v-4.668l-1.825 1.824a6.193 6.193 0 0 0 -4.398-1.824z" fill="#152337" transform="translate(11683.778 1604.778)"/><path d="m11732 1653h16v16h-16z" fill="none"/></svg>

<svg xmlns="http://www.w3.org/2000/svg" viewBox="11732 1653 16 16"><defs><style>.a{fill:#152337;}.b{fill:none;}</style></defs><g transform="translate(11732 1653)"><g transform="translate(1.778 1.778)"><path class="a" d="M56.222,229.668a4.639,4.639,0,0,1-3.3-1.369l1.746-1.746H50v4.668l1.824-1.824a6.22,6.22,0,0,0,10.62-4.4H60.887A4.664,4.664,0,0,1,56.222,229.668Z" transform="translate(-50 -218.778)"/><path class="a" d="M56.222,50A6.222,6.222,0,0,0,50,56.222h1.557a4.666,4.666,0,0,1,7.968-3.3L57.78,54.668h4.665V50L60.62,51.824A6.193,6.193,0,0,0,56.222,50Z" transform="translate(-50 -50)"/></g><rect class="b" width="16" height="16"/></g></svg>
